_site/images/features-page/icon-user-exclamation.svg

<svg fill="none" height="30" viewBox="0 0 30 30" width="30" xmlns="http://www.w3.org/2000/svg"><rect fill="#ffc634" height="30" rx="7" width="30"/><path clip-rule="evenodd" d="m19.1318 12.298c0 1.2275-.5332 2.3944-1.4613 3.1977 2.4744 1.1001 4.0729 3.5499 4.0831 6.2579 0 .4747-.3849.8596-.8596.8596-.4748 0-.8596-.3849-.8596-.8596 0-2.8485-2.3091-5.1576-5.1576-5.1576s-5.1576 2.3091-5.1576 5.1576c0 .4747-.38486.8596-.8596.8596s-.8596-.3849-.8596-.8596c.00258-2.6979 1.58247-5.145 4.0401-6.2579-.9441-.7953-1.4935-1.9634-1.5043-3.1977 0-2.37372 1.9243-4.298 4.298-4.298s4.298 1.92428 4.298 4.298zm-6.8767 0c0 1.4243 1.1545 2.5788 2.5788 2.5788.6839 0 1.3398-.2717 1.8234-.7553.4837-.4836.7554-1.1395.7554-1.8235 0-1.4242-1.1546-2.57876-2.5788-2.57876-1.4243 0-2.5788 1.15456-2.5788 2.57876zm9.8853-1.7189c-.4748 0-.8596.3849-.8596.8596v1.7192c0 .4747.3848.8596.8596.8596.4747 0 .8596-.3849.8596-.8596v-1.7192c0-.4747-.3849-.8596-.8596-.8596zm-.894 5.1576c.0032-.2276.0922-.4456.2493-.6103.2459-.248.6174-.3225.94-.1886.3225.1339.5319.4497.5299.7989.0029.1128-.0206.2246-.0688.3266-.0781.216-.2482.3861-.4641.4642-.2081.092-.4453.092-.6533 0-.1042-.0435-.2001-.1046-.2837-.1805-.1609-.1622-.2506-.3818-.2493-.6103z" fill="#fff" fill-rule="evenodd"/></svg>

<svg width="30" height="30" viewBox="0 0 30 30" fill="none" xmlns="http://www.w3.org/2000/svg">
<rect width="30" height="30" rx="7" fill="#FFC634"/>
<path fill-rule="evenodd" clip-rule="evenodd" d="M19.1318 12.298C19.1318 13.5255 18.5986 14.6924 17.6705 15.4957C20.1449 16.5958 21.7434 19.0456 21.7536 21.7536C21.7536 22.2283 21.3687 22.6132 20.894 22.6132C20.4192 22.6132 20.0344 22.2283 20.0344 21.7536C20.0344 18.9051 17.7253 16.596 14.8768 16.596C12.0283 16.596 9.7192 18.9051 9.7192 21.7536C9.7192 22.2283 9.33434 22.6132 8.8596 22.6132C8.38486 22.6132 8 22.2283 8 21.7536C8.00258 19.0557 9.58247 16.6086 12.0401 15.4957C11.096 14.7004 10.5466 13.5323 10.5358 12.298C10.5358 9.92428 12.4601 8 14.8338 8C17.2075 8 19.1318 9.92428 19.1318 12.298ZM12.2551 12.298C12.2551 13.7223 13.4096 14.8768 14.8339 14.8768C15.5178 14.8768 16.1737 14.6051 16.6573 14.1215C17.141 13.6379 17.4127 12.982 17.4127 12.298C17.4127 10.8738 16.2581 9.71924 14.8339 9.71924C13.4096 9.71924 12.2551 10.8738 12.2551 12.298ZM22.1404 10.5791C21.6656 10.5791 21.2808 10.964 21.2808 11.4387V13.1579C21.2808 13.6326 21.6656 14.0175 22.1404 14.0175C22.6151 14.0175 23 13.6326 23 13.1579V11.4387C23 10.964 22.6151 10.5791 22.1404 10.5791ZM21.2464 15.7367C21.2496 15.5091 21.3386 15.2911 21.4957 15.1264C21.7416 14.8784 22.1131 14.8039 22.4357 14.9378C22.7582 15.0717 22.9676 15.3875 22.9656 15.7367C22.9685 15.8495 22.945 15.9613 22.8968 16.0633C22.8187 16.2793 22.6486 16.4494 22.4327 16.5275C22.2246 16.6195 21.9874 16.6195 21.7794 16.5275C21.6752 16.484 21.5793 16.4229 21.4957 16.347C21.3348 16.1848 21.2451 15.9652 21.2464 15.7367Z" fill="white"/>
</svg>
